Papirus/64x64/mimetypes/text-x-justfile.svg

<?xml version="1.0" encoding="UTF-8" standalone="no"?>
<svg
   id="_图层_1"
   data-name="图层_1"
   version="1.1"
   viewBox="0 0 128 128"
   width="64"
   height="64"
   sodipodi:docname="text-x-justfile.svg"
   xml:space="preserve"
   inkscape:version="1.4 (e7c3feb100, 2024-10-09)"
   xmlns:inkscape="http://www.inkscape.org/namespaces/inkscape"
   xmlns:sodipodi="http://sodipodi.sourceforge.net/DTD/sodipodi-0.dtd"
   xmlns="http://www.w3.org/2000/svg"
   xmlns:svg="http://www.w3.org/2000/svg"><sodipodi:namedview
     id="namedview3"
     pagecolor="#505050"
     bordercolor="#eeeeee"
     borderopacity="1"
     inkscape:showpageshadow="0"
     inkscape:pageopacity="0"
     inkscape:pagecheckerboard="0"
     inkscape:deskcolor="#505050"
     inkscape:zoom="10.6875"
     inkscape:cx="32"
     inkscape:cy="26.19883"
     inkscape:window-width="1920"
     inkscape:window-height="939"
     inkscape:window-x="0"
     inkscape:window-y="34"
     inkscape:window-maximized="1"
     inkscape:current-layer="_图层_1"
     showguides="true"><sodipodi:guide
       position="7.6134526,83.439664"
       orientation="1,0"
       id="guide7"
       inkscape:locked="false" /><sodipodi:guide
       position="120.24109,71.856006"
       orientation="1,0"
       id="guide8"
       inkscape:locked="false" /></sodipodi:namedview><!-- Generator: Adobe Illustrator 29.0.1, SVG Export Plug-In . SVG Version: 2.1.0 Build 192)  --><defs
     id="defs1"><style
       id="style1">
      .st0 {
        fill: #0071e9;
      }

      .st1 {
        fill: #fff;
      }

      .st2 {
        fill: #5aaaff;
        isolation: isolate;
        opacity: .5;
      }
    </style></defs><path
     class="st0"
     d="M18.2,0c-5.6,0-10.2,4.6-10.2,10.2v107.6c0,5.6,4.6,10.2,10.2,10.2h91.6c5.6,0,10.2-4.6,10.2-10.2V40.6L82.2,0H18.2Z"
     id="path1"
     style="fill:#b9534f;fill-opacity:1" /><path
     class="st2"
     d="m 82.761404,2.619883 v 29.2 c 0,3.2 2.145542,11.6 11.89801,11.6 h 24.966316 z"
     id="path2"
     style="fill:#94423f;fill-opacity:1;stroke-width:0.987546" /><path
     class="st2"
     d="M 82.116964,0.02339171 V 29.223392 c 0,3.2 2.2,11.6 12.2,11.6 h 25.599996 z"
     id="path2-3"
     style="opacity:1;isolation:isolate;fill:#cc7d7b;fill-opacity:1" /><g
     id="g8"
     transform="matrix(2.5528974,0,0,2.2790602,-17.692717,-8.8413871)"><path
       style="opacity:0.2"
       d="m 20.031,32.586 -2,2.236 7.537,6.741 L 18,48.719 20.061,50.898 30,41.5 Z m 8,0 -2,2.236 7.537,6.741 L 26,48.719 28.061,50.898 38,41.5 Z m 8,0 -2,2.236 7.537,6.741 L 34,48.719 36.061,50.898 46,41.5 Z"
       id="path6" /><path
       style="fill:#f9f2f1"
       d="m 20.031,31.586 -2,2.236 7.537,6.741 L 18,47.719 20.061,49.898 30,40.5 Z m 8,0 -2,2.236 7.537,6.741 L 26,47.719 28.061,49.898 38,40.5 Z m 8,0 -2,2.236 7.537,6.741 L 34,47.719 36.061,49.898 46,40.5 Z"
       id="path7" /></g></svg>

<svg xmlns="http://www.w3.org/2000/svg" width="64" height="64" version="1.1">
 <path style="opacity:0.2" d="m12.75 5c-1.524 0-2.75 1.249-2.75 2.8v50.4c0 1.55 1.226 2.8 2.75 2.8h38.5c1.522 0 2.75-1.25 2.75-2.8v-35.2l-14-4-4-14z"/>
 <path style="fill:#b9534f" d="m12.75 4c-1.524 0-2.75 1.249-2.75 2.8v50.4c0 1.55 1.226 2.8 2.75 2.8h38.5c1.522 0 2.75-1.25 2.75-2.8v-35.2l-14-4-4-14z"/>
 <path style="opacity:0.2" d="m54 23-18-18v15.188c0 1.559 1.256 2.812 2.812 2.812z"/>
 <path style="fill:#cc7d7b" d="m54 22-18-18v15.188c0 1.559 1.256 2.812 2.812 2.812z"/>
 <path style="fill:#ffffff;opacity:0.2" d="M 12.75,4 C 11.226,4 10,5.25 10,6.801 V 7.801 C 10,6.25 11.226,5 12.75,5 H 36 V 4 Z"/>
 <path style="opacity:0.2" d="M 20.031,32.586 18.031,34.822 25.568,41.563 18,48.719 20.061,50.898 30,41.5 Z M 28.031,32.586 26.031,34.822 33.568,41.563 26,48.719 28.061,50.898 38,41.5 Z M 36.031,32.586 34.031,34.822 41.568,41.563 34,48.719 36.061,50.898 46,41.5 Z"/>
 <path style="fill:#f9f2f1" d="M 20.031,31.586 18.031,33.822 25.568,40.563 18,47.719 20.061,49.898 30,40.5 Z M 28.031,31.586 26.031,33.822 33.568,40.563 26,47.719 28.061,49.898 38,40.5 Z M 36.031,31.586 34.031,33.822 41.568,40.563 34,47.719 36.061,49.898 46,40.5 Z"/>
</svg>
